SVG_Azure_All/Local Network Gateway.svg

<?xml version="1.0" encoding="UTF-8" standalone="no"?>
<!-- Generated by Microsoft Visio, SVG Export Local Network Gateway.svg Page-1 -->

<svg
   xmlns:dc="http://purl.org/dc/elements/1.1/"
   xmlns:cc="http://creativecommons.org/ns#"
   xmlns:rdf="http://www.w3.org/1999/02/22-rdf-syntax-ns#"
   xmlns:svg="http://www.w3.org/2000/svg"
   xmlns="http://www.w3.org/2000/svg"
   xmlns:sodipodi="http://sodipodi.sourceforge.net/DTD/sodipodi-0.dtd"
   xmlns:inkscape="http://www.inkscape.org/namespaces/inkscape"
   width="0.78735709in"
   height="0.78743207in"
   viewBox="0 0 56.689778 56.695397"
   xml:space="preserve"
   class="st4"
   version="1.1"
   id="svg29"
   sodipodi:docname="Local Network Gateway.svg"
   style="font-size:12px;overflow:visible;color-interpolation-filters:sRGB;fill:none;fill-rule:evenodd;stroke-linecap:square;stroke-miterlimit:3"
   inkscape:version="0.92.5 (2060ec1f9f, 2020-04-08)"><metadata
   id="metadata35"><rdf:RDF><cc:Work
       rdf:about=""><dc:format>image/svg+xml</dc:format><dc:type
         rdf:resource="http://purl.org/dc/dcmitype/StillImage" /></cc:Work></rdf:RDF></metadata><defs
   id="defs33" /><sodipodi:namedview
   pagecolor="#ffffff"
   bordercolor="#666666"
   borderopacity="1"
   objecttolerance="10"
   gridtolerance="10"
   guidetolerance="10"
   inkscape:pageopacity="0"
   inkscape:pageshadow="2"
   inkscape:window-width="640"
   inkscape:window-height="480"
   id="namedview31"
   showgrid="false"
   inkscape:zoom="1.7193066"
   inkscape:cx="37.795072"
   inkscape:cy="23.279613"
   inkscape:window-x="0"
   inkscape:window-y="0"
   inkscape:window-maximized="0"
   inkscape:current-layer="svg29" />
	<style
   type="text/css"
   id="style2">
	<![CDATA[
		.st1 {fill:#57a300;stroke:none;stroke-linecap:butt;stroke-width:12.24}
		.st2 {fill:#ffffff;fill-opacity:0.15;stroke:none;stroke-linecap:butt;stroke-width:12.24}
		.st3 {fill:#ffffff;stroke:none;stroke-linecap:butt;stroke-width:12.24}
		.st4 {fill:none;fill-rule:evenodd;font-size:12px;overflow:visible;stroke-linecap:square;stroke-miterlimit:3}
	]]>
	</style>

	<g
   id="g27"
   transform="translate(-12.24016,-12.2389)">
		<title
   id="title4">Page-1</title>
		<g
   id="group3372-1"
   transform="translate(12.24,-34.0157)">
			<title
   id="title6">Local Network Gateway</title>
			<g
   id="group3373-2">
				<title
   id="title8">Sheet.3373</title>
				<g
   id="shape3374-3">
					<title
   id="title10">Sheet.3374</title>
					<path
   d="m 28.29,102.95 c -1.36,0 -2.72,-0.57 -3.73,-1.59 L 1.58,78.34 C 0.57,77.32 0,75.96 0,74.6 0,73.24 0.57,71.88 1.58,70.86 L 24.56,47.84 c 1.01,-1.02 2.37,-1.58 3.73,-1.58 1.36,0 2.72,0.56 3.73,1.58 l 23.09,23.13 c 1.02,1.02 1.58,2.27 1.58,3.75 0,1.36 -0.56,2.72 -1.58,3.74 l -23.09,22.9 c -1.01,1.02 -2.37,1.59 -3.73,1.59 z"
   class="st1"
   id="path12"
   inkscape:connector-curvature="0"
   style="fill:#57a300;stroke:none;stroke-width:12.23999977;stroke-linecap:butt" />
				</g>
				<g
   id="shape3375-5"
   transform="translate(0,-11.5654)">
					<title
   id="title15">Sheet.3375</title>
					<path
   d="m 32.02,59.41 c -1.01,-1.02 -2.37,-1.59 -3.73,-1.59 -1.36,0 -2.72,0.57 -3.73,1.59 L 1.58,82.43 C 0.57,83.45 0,84.81 0,86.17 c 0,1.36 0.57,2.72 1.58,3.74 l 13.02,13.04 24.55,-36.4 z"
   class="st2"
   id="path17"
   inkscape:connector-curvature="0"
   style="fill:#ffffff;fill-opacity:0.15;stroke:none;stroke-width:12.23999977;stroke-linecap:butt" />
				</g>
				<g
   id="shape3376-7"
   transform="translate(7.24221,-4.98898)">
					<title
   id="title20">Sheet.3376</title>
					<path
   d="m 21.05,56.23 -7.47,7.49 H 18.9 V 74.6 h 4.41 V 63.72 h 5.21 z m 0,46.72 7.47,-7.48 H 23.2 V 84.81 h -4.42 v 10.66 h -5.2 z m 3.51,-23.36 7.46,7.48 V 81.86 H 42.1 V 77.32 H 32.02 v -5.21 z m -6.91,0 -7.47,-7.48 v 5.21 H 0 v 4.54 h 10.18 v 5.21 z"
   class="st3"
   id="path22"
   inkscape:connector-curvature="0"
   style="fill:#ffffff;stroke:none;stroke-width:12.23999977;stroke-linecap:butt" />
				</g>
			</g>
		</g>
	</g>
</svg>

<?xml version="1.0" encoding="UTF-8" standalone="no"?>
<!DOCTYPE svg PUBLIC "-//W3C//DTD SVG 1.1//EN" "http://www.w3.org/Graphics/SVG/1.1/DTD/svg11.dtd">
<!-- Generated by Microsoft Visio, SVG Export Local Network Gateway.svg Page-1 -->
<svg xmlns="http://www.w3.org/2000/svg" xmlns:xlink="http://www.w3.org/1999/xlink" xmlns:ev="http://www.w3.org/2001/xml-events"
		width="1.1274in" height="1.42984in" viewBox="0 0 81.1729 102.949" xml:space="preserve" color-interpolation-filters="sRGB"
		class="st4">
	<style type="text/css">
	<![CDATA[
		.st1 {fill:#57a300;stroke:none;stroke-linecap:butt;stroke-width:12.24}
		.st2 {fill:#ffffff;fill-opacity:0.15;stroke:none;stroke-linecap:butt;stroke-width:12.24}
		.st3 {fill:#ffffff;stroke:none;stroke-linecap:butt;stroke-width:12.24}
		.st4 {fill:none;fill-rule:evenodd;font-size:12px;overflow:visible;stroke-linecap:square;stroke-miterlimit:3}
	]]>
	</style>

	<g>
		<title>Page-1</title>
		<g id="group3320-1" transform="translate(12.24,-34.0157)">
			<title>Local Network Gateway</title>
			<g id="group3321-2">
				<title>Sheet.3321</title>
				<g id="shape3322-3">
					<title>Sheet.3322</title>
					<path d="M28.29 102.95 C26.93 102.95 25.57 102.38 24.56 101.36 L1.58 78.34 C0.57 77.32 0 75.96 0 74.6 C0 73.24
								 0.57 71.88 1.58 70.86 L24.56 47.84 C25.57 46.82 26.93 46.26 28.29 46.26 C29.65 46.26 31.01 46.82
								 32.02 47.84 L55.11 70.97 C56.13 71.99 56.69 73.24 56.69 74.72 C56.69 76.08 56.13 77.44 55.11 78.46
								 L32.02 101.36 C31.01 102.38 29.65 102.95 28.29 102.95 Z" class="st1"/>
				</g>
				<g id="shape3323-5" transform="translate(-2.79776E-13,-11.5654)">
					<title>Sheet.3323</title>
					<path d="M32.02 59.41 C31.01 58.39 29.65 57.82 28.29 57.82 C26.93 57.82 25.57 58.39 24.56 59.41 L1.58 82.43 C0.57
								 83.45 0 84.81 0 86.17 C0 87.53 0.57 88.89 1.58 89.91 L14.6 102.95 L39.15 66.55 L32.02 59.41 Z"
							class="st2"/>
				</g>
				<g id="shape3324-7" transform="translate(7.24221,-4.98898)">
					<title>Sheet.3324</title>
					<path d="M21.05 56.23 L13.58 63.72 L18.9 63.72 L18.9 74.6 L23.31 74.6 L23.31 63.72 L28.52 63.72 L21.05 56.23
								 ZM21.05 102.95 L28.52 95.47 L23.2 95.47 L23.2 84.81 L18.78 84.81 L18.78 95.47 L13.58 95.47 L21.05
								 102.95 ZM24.56 79.59 L32.02 87.07 L32.02 81.86 L42.1 81.86 L42.1 77.32 L32.02 77.32 L32.02 72.11
								 L24.56 79.59 ZM17.65 79.59 L10.18 72.11 L10.18 77.32 L0 77.32 L0 81.86 L10.18 81.86 L10.18 87.07
								 L17.65 79.59 Z" class="st3"/>
				</g>
			</g>
		</g>
	</g>
</svg>
